!!!OTL: Jaeger und Graserin Es wold ain Maettischen wol fruuj aufschtaejen.
!!!ARE: Europa, Osteuropa, Ungarn, Wessprim, Veszpremfajsz
!!!YOR: 7, S. 230
!!    1932 aufgezeichnet
!!!SCT: Q0154A
!!!YEM: Copyright 1995, estate of Helmut Schaffrath.
**kern
*ICvox
*Ivox
*M3/4
*k[f#c#]
*D:
{4d
=1
4d
4f#
8a
8a
=2
4f#
4d
4f#
=3
8a
8b
4a
8a
8b
=4
4g
4r}
{4cc#
=5
8cc#
8dd
4ee
4dd
=6
8cc#
8b
8a
8g
8g
8a
=7
2f#}
{8a
8b
=8
8dd
8cc#
8dd
8a
4dd
=9
2ff#
4dd
=10
4dd
4b}
{4dd
=11
4cc#
4dd
8.a
16a
=12
4b
4cc#
4cc#
=13
2dd}
==
!!!AGN: Ballade, Verfuehrung, Verlassen
!!!ONB: ESAC (Essen Associative Code) Database: BALLADE
!!!AMT: simple triple
!!!AIN: vox
!!!EED: Helmut Schaffrath
!!!EEV: 1.0
*-
